X: 1
T: John MacColl's March To Kilbowie Cottage
Z: davedupplaw
S: https://thesession.org/tunes/9507#setting9507
R: reel
M: 4/4
L: 1/8
K: Amix
A>B|: c4 c>B A>c | e4 f>e c<e | A>B c<f e>c A>B | c<f e>c B2 A>B |
c4 c>B A>c | e4 f>e c<e | f>e f>c e>A B<c |1 A2 A2 A2 A>B :|2 A2 A2 A2 f>=g ||
a2-a>f e>c B<c | A>c e>=g f>c e>c | a>f e<f ~A2-A>B | c<f e>c B2 f>=g |
a2-a>f e>c B<c | A>c e>=g f>c e>c | f<a c<e e>A B<c | A2 A2 A2 f>=g |
a2-a>f e>c B<c | A>c e>=g f>c e>c | a>f e<f ~A2-A>B | c<f e>c B2 A>B |
c4 c>B A>c | e4 f>e c<e | f>e f>c e>A B<c | A2 A2 A2 c>B |
|: A>c B<c A>f e<f | a>e f<a e>f c<e | A>c B<c A>f e<f | a>f e>c B2 c>B |
A>c B<c A>f e<f | a>e f<a e>f c<e | f>e f>c e>A B<c |1 A2 A2 A2 c>B :|2 A2 A2 A2 e>d ||
c<e B>c A>c e>A | c<e a>e f>e c>d | e>c B<c A2 A>B | c<f e>c B2 e>d|
c<e B>c A>c e>A | c<e a>e f>e c>d | e>f c<e e>A B<c | A2 A2 A2 e>d |
c<e B>c A>c e>A | c<e a>e f>e c>d | e>c B<c A2 A>B | c<f e>c B2 A>B |
c4 c>B A>c | e4 f>e c<e | f>e f>c e>A B<c | A2 A2 A4 |
